X: 16
T: Christmas Eve
R: reel
Z: 2012 John Chambers <jc@trillian.mit.edu>
B: "100 Essential Irish Session Tunes" 1995 Dave Mallinson, ed.
M: 4/4
L: 1/8
K: G
GE |\
"G"D3E GFGA | B2dB "D"ABGB | "G"ABGE DB,DE | "A7"G2BG "D"ABGE |\
"G"DB,DE GFGA | "Em"BedB ABGA | "A"BAAB "C"GEBG | "D"ABGE "F"G2 :|
|: GA |\
"Em"BABd edeg | abge g2eg | "Am"a2ge gage | "D"dedB ABGA |\
"Em"BABd edeg | "D"abge "C"g2eg | "Am"a2ge "D"d2BG | "C"ABGE "G"G2 :|
|: dc |\
"G"BGGB dGBd | "C"eggd egdc | "G"BGGA BGAG | "Am"EAAG "D"EA~A2 |\
"G"BG~G2 BGBd | "C"eg~g2 egga | "Em"bgaf "A7"gedB | "C"ABGE "G"G2 :|

%%sep 2 1 500
%%sep 1 1 500

